public/assets/Hero.svg

<?xml version="1.0" encoding="UTF-8"?>
<svg id="Layer_2" data-name="Layer 2" xmlns="http://www.w3.org/2000/svg" viewBox="0 0 1440 575.44">
  <g id="Layer_1-2" data-name="Layer 1">
    <path d="M1440,377.06V0H0v546.8c3.44.81,7.25,1.4,11.8,1.62,11.33.32,15.23-5.03,22.94-7.89,6.49-2.4,14.99-3.02,21.8-5.26,4.82-1.52,9.15-3.41,14.19-4.79,5.25-1.51,10.46-2.27,14.51-3.83,6.85-2.69,8.55-7.31,10.57-11.42,1.12-2.73,2.65-6.52,6.71-7.98,3.08-1.15,9.4-.72,14.39-.88,4.36-.1,8.86-.71,12.79-1.51,5.58-1.32,12.79-2.42,17.11.77,4.45,2.75,8.48,7.5,16.8,7.2,4.99-.03,10.19-1.47,15.63-1.7,6.6-.52,14.11,1.7,19.72.06,4.49-1.56,5.19-4.73,8.24-6.88,6.92-5.39,20.45.24,29.94-1.45,9.28-2.09,21.89-12.51,39.29-14.8,17.4-2.29,30.59-11.92,66.71,1.84,14.89,5.67,80.52-9.34,87.48-7.7,6.54,1.38,12.51,4.73,20.07,3.99,13.74-1.24,17.71-10.73,28.13-9.36,6.92.92,15.46,3.59,22.6,1.77,5.1-1.03,10.03-3.27,16.12-3.46,8.6-.36,17.01,1.59,25.33,2.71,15,1.68,22.02,1.6,34.9,6.58,11.47,3.51,25.31,3.32,37.09,6.77,17.59,4.82,22.2,2.7,38.5,3.15,5.24.51,9.43,2.9,14.6,3.95,7.32,1.9,15.81-.66,22.74.37,4.29.72,7.9,3.29,12.44,4.71,6.08,2.14,13.39,1.25,19.67.09,13.02-2.19,27.52-3.07,40.95-1.56,4.62.52,9.76,1.16,14.16.51,7.81-1.11,11.1-5.7,16.99-8.09,7.46-3.48,17.32-2.43,27.12-2.21,4.85.03,9.68-.45,14.2-1.17,11.85-2.74,18.65,1.05,29.06-1,9.98-2.64,10.84-5.26,23.15-1.92,9.76,2.42,21.47,5.31,31.79,5.71,9.73.84,22.09-5.06,30.06-1.85,6.55,3.38,8.22,8.76,15.75,11.97,4.97,2.31,12.05,2.25,18.32,2.24,7.09-.27,12.49,2.03,18.6,3.56,6.53,1.33,14.2.59,20.47,2.31,4.99,1.28,8.19,3.83,11.42,6.13,11.92,8.42,33.53,17.64,54.27,14.54,14.6-2.81,28.8-10.17,45.65-5.59,7.15,1.86,14.85,5.23,20.67,8.51,3.73,2.11,6.81,4.45,8.38,7.15,2.45,3.5,1.54,9.28,11.77,8.84,7.21-.06,17.02-2.92,22.5.95,2.84,2.16,3.33,5.82,6.27,7.97,10.14,5.77,25.63-.83,37.2-1.39,9.08-.59,12.02,5.2,19,7.18,6.8,1.81,12.4-3.28,16.68-5.07,7.55-3.74,11.5,3.16,16.22,6.06,1.65,1.13,3.42,2.01,5.48,2.47,4.61,1.09,10.9-.07,15.9-.32,2.1-.11,4.09-.09,6.14.12,5.97.76,9.63,2.43,15.03,1.08,5.18-1.03,10.14-4.3,15.6-4.26,1.35-.04,2.88.2,4.1.51,12.3,4.23,13.87,10.12,34.34,8.27,35.19-2.63,32.9-19.03,49.95-20.35v-177.68Z"/>
  </g>
</svg>

<svg preserveAspectRatio="none" viewBox="0 0 1440 600" fill="none" xmlns="http://www.w3.org/2000/svg">
<path d="M1440 377.06V0H0V546.8C3.44 547.61 7.25 548.2 11.8 548.42C23.13 548.74 27.03 543.39 34.74 540.53C41.23 538.13 49.73 537.51 56.54 535.27C61.36 533.75 65.69 531.86 70.73 530.48C75.98 528.97 81.19 528.21 85.24 526.65C92.09 523.96 93.79 519.34 95.81 515.23C96.93 512.5 98.46 508.71 102.52 507.25C105.6 506.1 111.92 506.53 116.91 506.37C121.27 506.27 125.77 505.66 129.7 504.86C135.28 503.54 142.49 502.44 146.81 505.63C151.26 508.38 155.29 513.13 163.61 512.83C168.6 512.8 173.8 511.36 179.24 511.13C185.84 510.61 193.35 512.83 198.96 511.19C203.45 509.63 204.15 506.46 207.2 504.31C214.12 498.92 227.65 504.55 237.14 502.86C246.42 500.77 259.03 490.35 276.43 488.06C293.83 485.77 307.02 476.14 343.14 489.9C358.03 495.57 423.66 480.56 430.62 482.2C437.16 483.58 443.13 486.93 450.69 486.19C464.43 484.95 468.4 475.46 478.82 476.83C485.74 477.75 494.28 480.42 501.42 478.6C506.52 477.57 511.45 475.33 517.54 475.14C526.14 474.78 534.55 476.73 542.87 477.85C557.87 479.53 564.89 479.45 577.77 484.43C589.24 487.94 603.08 487.75 614.86 491.2C632.45 496.02 637.06 493.9 653.36 494.35C658.6 494.86 662.79 497.25 667.96 498.3C675.28 500.2 683.77 497.64 690.7 498.67C694.99 499.39 698.6 501.96 703.14 503.38C709.22 505.52 716.53 504.63 722.81 503.47C735.83 501.28 750.33 500.4 763.76 501.91C768.38 502.43 773.52 503.07 777.92 502.42C785.73 501.31 789.02 496.72 794.91 494.33C802.37 490.85 812.23 491.9 822.03 492.12C826.88 492.15 831.71 491.67 836.23 490.95C848.08 488.21 854.88 492 865.29 489.95C875.27 487.31 876.13 484.69 888.44 488.03C898.2 490.45 909.91 493.34 920.23 493.74C929.96 494.58 942.32 488.68 950.29 491.89C956.84 495.27 958.51 500.65 966.04 503.86C971.01 506.17 978.09 506.11 984.36 506.1C991.45 505.83 996.85 508.13 1002.96 509.66C1009.49 510.99 1017.16 510.25 1023.43 511.97C1028.42 513.25 1031.62 515.8 1034.85 518.1C1046.77 526.52 1068.38 535.74 1089.12 532.64C1103.72 529.83 1117.92 522.47 1134.77 527.05C1141.92 528.91 1149.62 532.28 1155.44 535.56C1159.17 537.67 1162.25 540.01 1163.82 542.71C1166.27 546.21 1165.36 551.99 1175.59 551.55C1182.8 551.49 1192.61 548.63 1198.09 552.5C1200.93 554.66 1201.42 558.32 1204.36 560.47C1214.5 566.24 1229.99 559.64 1241.56 559.08C1250.64 558.49 1253.58 564.28 1260.56 566.26C1267.36 568.07 1272.96 562.98 1277.24 561.19C1284.79 557.45 1288.74 564.35 1293.46 567.25C1295.11 568.38 1296.88 569.26 1298.94 569.72C1303.55 570.81 1309.84 569.65 1314.84 569.4C1316.94 569.29 1318.93 569.31 1320.98 569.52C1326.95 570.28 1330.61 571.95 1336.01 570.6C1341.19 569.57 1346.15 566.3 1351.61 566.34C1352.96 566.3 1354.49 566.54 1355.71 566.85C1368.01 571.08 1369.58 576.97 1390.05 575.12C1425.24 572.49 1422.95 556.09 1440 554.77V377.09V377.06Z" fill="black"/>
</svg>
